X:1
T:Benedett'i martiri
T:Jacques Arcadelt c.1500-1568
T:Benedett'i martiri
T:This work is licensed under CC0: creativecommons.org/publicdomain/zero/1.0/
T:Transcribed from 1539 Gardano edition of Arcadelt's Il primo libro di madrigali a 4 Original note values halved
T:This work is licensed under CC0: creativecommons.org/publicdomain/zero/1.0/
T:This work is licensed under CC0: creativecommons.org/publicdomain/zero/1.0/
T:This work is licensed under CC0: creativecommons.org/publicdomain/zero/1.0/
C:Jacques Arcadelt
C:c.1500-1568
Z:Anonymous
Z:This work is licensed under CC0: creativecommons.org/publicdomain/zero/1.0/
%%score [ 1 2 3 4 ]
L:1/8
M:4/4
K:C
V:1 treble nm="Piano" snm="Pno."
V:2 treble transpose=-12 nm="Piano" snm="Pno."
V:3 treble transpose=-12 nm="Piano" snm="Pno."
V:4 treble nm="Piano" snm="Pno."
V:1
"^Cantus" x8 |"^Instrument change" z8 | z4 c4 | B2 G2 A2 B2 | c4 B4 | z2 B2 c2 A2 | B4 c4 | %7
w: ||Be-|ne- det- t'i mar-|ti- ri|ch'io so- ste-|gno d'a-|
 d4 G3 A | BABc d2 e2 | d2 c4 B2 | c2 e2 e2 e2 | d2 B2 c3 B | A2 G2 A4 | G8 | z4 z2 G2 | %15
w: mor per _|_ _ _ _ voi sof-|fer- * *|si ben- e- det-|te le la- gri-|m'e'i so- spi-|ri|ch'io|
 A2 B2 c4- | c2 B2 A4 | G2 G2 G2 G2 | F2 E4 D2 | E2 E4 G2- | G2 D4 F2- | F2 F2 F4 | E4 D2 C2 | D8 | %24
w: vò sem- pre|_ spar- gen-|do ch'io vò sem-|pre spar- gen-|do Al- ma|* che pian-|* to per|dol- cez- za|ver-|
 C2 G2 G2 G2 | A2 c3 B A2- | A2 G2 A4 | z2 G2 G2 G2 | A2 c3 B A2- | A2 G2 A4- | A4 z4 | z4 z4 | %32
w: si ben dei mo-|rir ri- * den-|* * do|poi- ch'a mor-|te ne _ me-|* * na|_||
 z8 | z8 | z2 G2 G2 G2 | E2 F2 G3 A | BABc d2 e2- | ed c4 B2 | c8 |] %39
w: ||que- sta so-|la fra noi del|ciel _ _ _ _ si-|* * re- *|na.|
V:2
"^Alto" x8 |"^Instrument change" z8 | z4 z2 C,2 | D,2 E,2 F,2 G,2 | A,4 G,2 G,2 | A,2 G,2 E,2 F,2 | %6
w: ||Be-|ne- det- t'i mar-|ti- ri ch'io|so- ste- gno d'a-|
 G,2 G,,2 G,,2 C,2- | C,2 B,,2 C,4 | z2 G,,2 G,,2 G,2 | A,2 F,2 G,4 | E,2 C,2 G,2 G,2 | %11
w: mor per voi sof-|* fer- si|per voi sof-|fer- * *|si ben- e- det-|
 G,2 G,2 E,2 E,2 | F,2 D,/C,/D,/E,/ F, G,2"^#" ^F, | G,4 D,3 E,- | E, F,2 G,>F,E,/D,/ C,2 | %15
w: te le la- gri-|m'e'i so- * * * * spi- *|ri ch'io vò|* sem- pre _ _ _ _|
 z z2 D, E,2 F,2 | G,6 F,2 | E,4 D,2 z D, | D,2 B,,C,>B,,A,,/G,,/ A,,2 | G,,2 G,,2 G,4 | %20
w: ch'io vò sem-|pre spar-|gen- do sem-|pre spar- gen- * * * *|do Al- ma|
 D,4 F,3 E, | D,2 C,2 D,4 | G,,2 G,4 F,2 | G,2 A,2 G,4 | G,2 G,,2 C,2 C,2 | A,,3 B,, C,D, E,2- | %26
w: che pian- to|per dol- cez-|za per dol-|cez- za ver-|si ben dei mo-|rir _ _ _ ri-|
 E,2 D,2 E,2 E,2 | C,2 E,2 D,3 E, | F,2 E,2 C,2 E,2- | E,2 D,2 E,2 A,,2 | C,2 A,,2 A,,2 G,,2 | %31
w: * den- do poi|ch'a mor- te _|_ ne me- *|* * na que-|sta so- la fra|
 C,3 D, E,F, G,2- | G,2 F,2 E,3 F, | G,E, F,3 E,D,C, | D,4 C,2 G,,2 | G,,2 A,,2 B,,2 C,2 | %36
w: noi _ _ _ _|_ del ciel _|_ _ si- * * *|re- na, que-|sta so- la fra|
 D,6 C,2 | E,2 F,2 G,4 | E,8 |] %39
w: noi del|ciel si- re-|na.|
V:3
"^Tenor" x8 |"^Instrument change" C,4 B,,2 G,,2 | A,,2 B,,2 C,D,E,F, | G,4 z4 | z2 F,2 D,2 E,2 | %5
w: |Be- ne- det-|t'i mar- ti- * * *|ri|ch'io so- ste-|
 C, D,2 E,>D,C,/B,,/ C,2 | B,,2 D,2 E,2 C,2 | F,4 E,2 E,2 | D,2 D,2 G,2 E,2 | F,E,D,C, D,4 | %10
w: gno d'a- mo _ _ _ _|re per voi sof-|fer- si d'am-|or per voi sof-|fer- * * * *|
 C,2 G,,2 C,2 C,2 | B,,2 D,2 C,2 A,,2 | C,2 B,,2 A,,2 D,2- | D,C,B,,A,, B,,4 | z2 D,2 E,4- | %15
w: si ben- e- det-|te le la- gri-|m'e'i so- spi- *|* * * * ri|ch'io vò|
 E,2 D,2 C,2 C,2 | D,8 | G,,4 z2 G,,2 | A,,2 G,,2 A,,4 | B,,8 | z2 B,,2 D,4 | A,,4 A,,2 B,,2 | %22
w: _ sem- pre spar-|gen-|do sem-|pre spar- gen-|do|Al- ma|che pian- to|
 C,2 C,2 B,,2 A,,2 | B,,2 C,4 B,,2 | C,3 D, E,4- | E,8 | z2 G,,2 C,2 C,2 | A,,2 C,2 B,,4 | %28
w: per dol- cez- za|ver- * *|si _ _|_|ben dei mor-|ir ri- den-|
 A,,4 z4 | z2 G,,2 C,2 C,2 | A,,2 C,2 B,,4 | A,,2 C,2 C,2 C,2 | A,,2 B,,2 C,3 B,, | %33
w: do|poi ch'a mor-|te ne me-|na que- sta so-|la fra noi del|
 G,,2 B,,2 A,,4 | G,,4 z2 C,2 | C,2 C,2 E,2 E,2 | D,2 G,2 F,2 E,2 | C,4 D,4 | C,8 |] %39
w: ciel si- re-|na, que-|sta so- la fra|noi del ciel si-|re- *|na.|
V:4
"^Bass" x8 |"^Instrument change" C,4 D,2 E,2 | F,2 G,2 A,4 | G,4 z4 | z2 F,2 G,2 E,2 | %5
w: |Be- ne- det-|t'i mar- ti-|ri|ch'io so- ste-|
 F,2 G,2 A,4 | G,4 E,2 F,2 | D,4 C,D,E,F, | G,F,G,A, B,2 C2 | F,2 A,2 G,4 | C,2 C,2 C,2 C,2 | %11
w: gno d'a- mor|per voi sof-|fer- si _ _ _|_ _ _ _ _ per-|voi sof- fer-|si ben- e- det-|
 G,2 G,2 A,3 G, | F,2 G,2 D,4 | G,4 z2 G,2 | A,2 B,2 C4- | C2 B,2 A,4 | G,4 z2 D,2 | %17
w: te le la- gri-|m'e'i so- spi-|ri ch'io|vò sem- pre|_ spar- gen-|do ch'io|
 E,2 C,2 G,3 F,/E,/ | D,2 E,2 F,4 | E,4 E,4 | G,4 D,4 | F,3 E, D,2 D,2 | C,D,E,F, G,2 A,2 | %23
w: vò sem- pre _ _|_ spar- gen-|do Al-|ma che|pian- to per dol-|cez- * * * * za|
 G,2 F,2 G,4 | C,4 z2 C,2 | C2 C2 A,2 C2 | B,4 A,4 | z4 z2 G,2 | C2 C2 A,2 C2 | B,4 A,2 F,2 | %30
w: ver- * *|si ben|dei mo- rir ri-|den- do|poi|ch'a mor- te ne|me- na que-|
 F,2 F,2 D,2 E,2 | F,3 E, C,2 E,2 | D,4 C,2 C2 | B,2 D3 C C2- | C2 B,2 C2 C,2 | C,2 F,2 E,2 C,2 | %36
w: sta so- la fra|noi del ciel si-|re- na del|ciel si- * re-|* * na, que-|sta so- la fra|
 G,3 A, B,2 C2 | A,4 G,4 | C,8 |] %39
w: noi del ciel si-|re- *|na.|

